public/avatar/hat/113.svg

<svg xmlns:xlink="http://www.w3.org/1999/xlink" height="92.9" width="100.7" xmlns="http://www.w3.org/2000/svg"><use height="19.35" transform="translate(11.35 34.65)" width="54.9" xlink:href="#a"/><defs><g id="a" fill-rule="evenodd"><path d="M8.85-2.85q.2-1.4.7-2.75 1.05-2.65 2.7-2.3 1.3.25 1.4 4.85l.05 1.3q1.65-.3 1.9-1.55-.8-6.25.35-7.85.75-.95 1.4-1l.5.15q.2-.8.7-1.6 1-1.55 2.55-1.5 2.5.05 2 3.95l1.15-1q1.35-.85 2.6 0 1.65 1.1-.35 5.2-.9 2.15-3.15 4.35-1.4 1.35-2.9 2.35l1.4.9q1.25 1.15.5 2.3-.5.8-2.55.8l-2.4-.3-1.4-.6-3.9 1.25-3.85.15-1.8-.65L2.3.85l3.65-.2Q3.15-.6 3.35-3.2 3.5-5.05 4.8-5.9L6.9-6q1.1.85 1.55 2.65l.4.5" transform="translate(27.3 15.1)"/><path d="M18.9-5.8q-.5 6.2-2.25 7.45Q14.6 3.1 12.2 3.4l-4.95.2-2.2-2.45q7.35 0 10.25-2.85.95-.9.55-5.1-.35-3.85 1.1-4.35Q19.4-12 18.9-5.8" fill="#995b1f" transform="translate(27.3 15.1)"/><path d="M19.05-.35q-2.1 2.2-3.8 2.15l-1.1-2.2Q17-2.45 17.5-7.5q.2-2.35 1.4-4.65 1.3-2.65 2.55-2Q23.5-13 21.5-4.2q-.45 1.85-2.45 3.85" fill="#995b1f" transform="translate(27.3 15.1)"/><path d="M20.35-4.4q.85-2.6 2.35-5 1.9-2.85 3.2-2.3 1.3.6.55 3.05-.65 2.15-2.05 3.9Q21.45-1.1 19.05-.6l1.3-3.8M15.3.05q5.1 0 6.45 1.65 1.2 1.5-2.4 1.2-3.65-.3-5.15-1.55l1.1-1.3m-6.05-1.5q1 1.1.7 2.4l-.9.85Q5.95.2 4.75-1.25q-1.6-1.9 0-3.7 1.55-1.75 2.5.6.5 1.25 2 2.9" fill="#995b1f" transform="translate(27.3 15.1)"/><path d="M12.9-2.65q-.55 3.9-2.3 3.6L8.6.5l1.35-4.95q1.1-3.35 2.15-2.8 1.35.7.8 4.6m-7.05 3.9L8.9 3.6l-2.3.35q-1.2-.6-2.05-1.55L2.3.85l3.55.4" fill="#995b1f" transform="translate(27.3 15.1)"/><path d="m15.75-2.5.35-2.6.55-2 .2-2.25q.1-1.2.45-1.55l.65-.2q.4.05.3.55l-.65 3.5q-.4 1.75-1.85 4.55m3 2.55L19 0q1.3.15 2.45 1.5l-2.05-.25h-2.2l1.55-1.2m.15-4.35.65-2.45q.45-2.1.45-5.1 0-2.1.75-2.25 1.15-.15 1.15 1.65v2.8l-.15 1.25-1 1.4L19-4.55l-.1.25" fill="#693e15" transform="translate(27.3 15.1)"/><path d="M22.05-3.9q.95-.9 1.55-2.6.75-1.85.75-2.85 0-1.5.7-1.95 1.25-.9 1.45.65.4 2.35-2.1 5.85l-3.95 3.45-.95.75L18.1.65l-.6.4-.4.1-1-.25 2.45-1.8 2.1-1.9 1.4-1.1" fill="#693e15" transform="translate(27.3 15.1)"/><path d="m12.15 3.5-2.6.1-1.85.25-1.2.25-.35-.65-.5-.4 1.55-.3 1.55-.4 3.35-.65 3.4-.75L16.95.5q1.4-.25.8.45l.05.2q-.65-.05-.05 1.4L15.6 2.3l-1.55.7-1.9.5M13-3.75q0 2.5-.2 2.85Q12.2.35 11 .7L9.8 1l1.3-1.6q.45-.85.45-2.15l.05-4.1q1.4-.2 1.4 3.1m-3.9 2.4L8.6 0Q5.85-2.25 6-5.15q0-.7.85.15l.2.75q.25 1.05 1.4 2.1l.65.8" fill="#693e15" transform="translate(27.3 15.1)"/><path d="M-23.05-2.6q-2.1-2.05-3.2-4.35-1.9-4.15-.35-5.2 1.3-.85 2.65 0l1.15 1 .05-1.95q.35-1.95 1.95-2 2.5-.1 3.25 3.1l.5-.15q.65.05 1.35 1 1.2 1.6.4 7.85.2 1.25 1.9 1.55l.05-1.3q.1-4.6 1.35-4.85 2.7-.55 3.45 5.05l.4-.5Q-7.7-5.15-6.6-6l2.1.1q1.25.85 1.45 2.7.2 2.6-2.6 3.85l3.6.2-4.1 2.75-1.8.65-3.85-.15-3.9-1.25-1.4.6-2.4.3q-2.05 0-2.55-.8-.75-1.15.5-2.3l1.4-.9q-1.55-1-2.9-2.35" transform="translate(27.3 15.1)"/><path d="M-18.6-5.8q-.5-6.2 1.95-5.35 1.45.5 1.1 4.35-.4 4.15.55 5.1 2.9 2.85 10.25 2.85L-7 3.6l-4.9-.2q-2.4-.3-4.45-1.75Q-18.1.4-18.6-5.8" fill="#995b1f" transform="translate(27.3 15.1)"/><path d="M-16.6-11.2q1.25 0 1.05 3.2l-.4 3.8q0 .5 1.3 3 .35.65.25 2.3L-16 .35q-1.55-.55-2.05-1L-17-11.1h.4v-.1" fill="#693e15" transform="translate(27.3 15.1)"/><path d="M-18.8-.35q-2-2.05-2.4-3.85-2-8.8.05-9.95 1.25-.65 2.55 2 1.2 2.3 1.4 4.65.5 5.05 3.35 7.1l-1.1 2.2q-1.7.05-3.85-2.15" fill="#995b1f" transform="translate(27.3 15.1)"/><path d="m-20.1-4.4 1.35 3.8q-2.3-.45-5.4-4.15-1.35-1.8-2-3.9-.75-2.45.55-3.05 1.3-.55 3.2 2.3 1.55 2.4 2.3 5M-15 .05l1.1 1.3Q-15.4 2.6-19 2.9q-3.65.3-2.45-1.2Q-20.1.05-15 .05m6.05-1.5q1.5-1.65 2-2.9.95-2.35 2.5-.6 1.55 1.8-.05 3.7Q-5.65.2-8.75 1.8l-.9-.85q-.3-1.3.7-2.4" fill="#995b1f" transform="translate(27.3 15.1)"/><path d="M-12.65-2.65q-.55-3.9.8-4.6 1.05-.55 2.15 2.8L-8.3.5l-2 .45q-1.75.3-2.35-3.6m7.05 3.9 3.55-.4-2.2 1.55-2.05 1.55-2.3-.35 3-2.35" fill="#995b1f" transform="translate(27.3 15.1)"/><path d="m-7.8 3.75-1.45-.15-2.6-.1-1.9-.5q-1.05-.6-1.6-.7l-2.1.25q.6-1.45-.1-1.4l.1-.2q-.6-.7.8-.45l1.45.45 3.35.75 3.35.65 1.55.4 2.15.15Q-6.1 4-6.55 4.05l-1.25-.3m2.3-8.9 1.25 1.25q.45.9.2 1.7l-.75 1.1L-6.05 0-7.4.85-8.95.9q-.1-.5 1-1.25l1.45-1.1q.8-1.3.85-1.95l.15-1.75M-11-.6l.45-1.8q-.05-4.15-.25-4.2.7.1 1.15 2 .75 1.15.75 2.4-.05.7-1.15 1.5-.7.55-.9.25L-11-.6" fill="#693e15" transform="translate(27.3 15.1)"/><path d="M-22.1-5.55q1.25 1.65 4.45 4.25 3.6 2.95 6.25 3.05l.95.55-3.4-.25Q-17 1.35-18.5 0q-2.7-1.55-3.75-2.6-2.45-2.35-3.7-5.15-.4-.9-.3-2.6 1.3.4 2.4 2.05l1.75 2.75" fill="#693e15" transform="translate(27.3 15.1)"/><path d="m-19.25-13.25.75 1.2q.45 1.55.45 3.45 0 1.35 1.35 4.7.6 1.5 1.3 2.1l-1.15-.45-3-1.85q-.65-1.95-.65-3.1v-3.45l.05-3.25q.2-.4.9.65" fill="#693e15" transform="translate(27.3 15.1)"/><path d="M-13.55-.65q-3.6-1.75-5.25-3-1.05-.8-2.25-2.95l-1-2.05 3.65 4.45 4.85 3.55m-1.4 3.45q-1.55-1.05-2.45-1.55l-1.05-1.2 5.3 3.05 1.3.4-3.1-.7m30.65-.3-1.65.5 3-2.1 3.4-2-1.7 1.7-3.05 1.9" fill="#432709" transform="translate(27.3 15.1)"/></g></defs></svg>

<?xml version="1.0" encoding="UTF-8" standalone="no"?>
<svg xmlns:xlink="http://www.w3.org/1999/xlink" height="92.9px" width="100.7px" xmlns="http://www.w3.org/2000/svg">
  <g transform="matrix(1.0, 0.0, 0.0, 1.0, 38.65, 49.75)">
    <use height="19.35" transform="matrix(1.0, 0.0, 0.0, 1.0, -27.3, -15.1)" width="54.9" xlink:href="#shape0"/>
  </g>
  <defs>
    <g id="shape0" transform="matrix(1.0, 0.0, 0.0, 1.0, 27.3, 15.1)">
      <path d="M8.85 -2.85 Q9.05 -4.25 9.55 -5.6 10.6 -8.25 12.25 -7.9 13.55 -7.65 13.65 -3.05 L13.7 -1.75 Q15.35 -2.05 15.6 -3.3 14.8 -9.55 15.95 -11.15 16.7 -12.1 17.35 -12.15 L17.85 -12.0 Q18.05 -12.8 18.55 -13.6 19.55 -15.15 21.1 -15.1 23.6 -15.05 23.1 -11.15 L24.25 -12.15 Q25.6 -13.0 26.85 -12.15 28.5 -11.05 26.5 -6.95 25.6 -4.8 23.35 -2.6 21.95 -1.25 20.45 -0.25 L21.85 0.65 Q23.1 1.8 22.35 2.95 21.85 3.75 19.8 3.75 L17.4 3.45 16.0 2.85 12.1 4.1 8.25 4.25 6.45 3.6 2.3 0.85 5.95 0.65 Q3.15 -0.6 3.35 -3.2 3.5 -5.05 4.8 -5.9 L6.9 -6.0 Q8.0 -5.15 8.45 -3.35 L8.85 -2.85" fill="#000000" fill-rule="evenodd" stroke="none"/>
      <path d="M18.9 -5.8 Q18.4 0.4 16.65 1.65 14.6 3.1 12.2 3.4 L7.25 3.6 5.05 1.15 Q12.4 1.15 15.3 -1.7 16.25 -2.6 15.85 -6.8 15.5 -10.65 16.95 -11.15 19.4 -12.0 18.9 -5.8" fill="#995b1f" fill-rule="evenodd" stroke="none"/>
      <path d="M19.05 -0.35 Q16.95 1.85 15.25 1.8 L14.15 -0.4 Q17.0 -2.45 17.5 -7.5 17.7 -9.85 18.9 -12.15 20.2 -14.8 21.45 -14.15 23.5 -13.0 21.5 -4.2 21.05 -2.35 19.05 -0.35" fill="#995b1f" fill-rule="evenodd" stroke="none"/>
      <path d="M20.35 -4.4 Q21.2 -7.0 22.7 -9.4 24.6 -12.25 25.9 -11.7 27.2 -11.1 26.45 -8.65 25.8 -6.5 24.4 -4.75 21.45 -1.1 19.05 -0.6 L20.35 -4.4" fill="#995b1f" fill-rule="evenodd" stroke="none"/>
      <path d="M15.3 0.05 Q20.4 0.05 21.75 1.7 22.95 3.2 19.35 2.9 15.7 2.6 14.2 1.35 L15.3 0.05" fill="#995b1f" fill-rule="evenodd" stroke="none"/>
      <path d="M9.25 -1.45 Q10.25 -0.35 9.95 0.95 L9.05 1.8 Q5.95 0.2 4.75 -1.25 3.15 -3.15 4.75 -4.95 6.3 -6.7 7.25 -4.35 7.75 -3.1 9.25 -1.45" fill="#995b1f" fill-rule="evenodd" stroke="none"/>
      <path d="M12.9 -2.65 Q12.35 1.25 10.6 0.95 L8.6 0.5 9.95 -4.45 Q11.05 -7.8 12.1 -7.25 13.45 -6.55 12.9 -2.65" fill="#995b1f" fill-rule="evenodd" stroke="none"/>
      <path d="M5.85 1.25 L8.9 3.6 6.6 3.95 Q5.4 3.35 4.55 2.4 L2.3 0.85 5.85 1.25" fill="#995b1f" fill-rule="evenodd" stroke="none"/>
      <path d="M15.75 -2.5 L16.1 -5.1 16.65 -7.1 16.85 -9.35 Q16.95 -10.55 17.3 -10.9 L17.95 -11.1 Q18.35 -11.05 18.25 -10.55 L17.6 -7.05 Q17.2 -5.3 15.75 -2.5" fill="#693e15" fill-rule="evenodd" stroke="none"/>
      <path d="M18.75 0.05 L19.0 0.0 Q20.3 0.15 21.45 1.5 L19.4 1.25 17.2 1.25 18.75 0.05" fill="#693e15" fill-rule="evenodd" stroke="none"/>
      <path d="M18.9 -4.3 L19.55 -6.75 Q20.0 -8.85 20.0 -11.85 20.0 -13.95 20.75 -14.1 21.9 -14.25 21.9 -12.45 L21.9 -9.65 21.75 -8.4 20.75 -7.0 19.0 -4.55 18.9 -4.3" fill="#693e15" fill-rule="evenodd" stroke="none"/>
      <path d="M22.05 -3.9 Q23.0 -4.8 23.6 -6.5 24.35 -8.35 24.35 -9.35 24.35 -10.85 25.05 -11.3 26.3 -12.2 26.5 -10.65 26.9 -8.3 24.4 -4.8 L20.45 -1.35 19.5 -0.6 18.1 0.65 17.5 1.05 17.1 1.15 16.1 0.9 18.55 -0.9 20.65 -2.8 22.05 -3.9" fill="#693e15" fill-rule="evenodd" stroke="none"/>
      <path d="M12.15 3.5 L9.55 3.6 7.7 3.85 6.5 4.1 6.15 3.45 5.65 3.05 7.2 2.75 8.75 2.35 12.1 1.7 15.5 0.95 16.95 0.5 Q18.35 0.25 17.75 0.95 L17.8 1.15 Q17.15 1.1 17.75 2.55 L15.6 2.3 14.05 3.0 12.15 3.5" fill="#693e15" fill-rule="evenodd" stroke="none"/>
      <path d="M13.0 -3.75 Q13.0 -1.25 12.8 -0.9 12.2 0.35 11.0 0.7 L9.8 1.0 11.1 -0.6 Q11.55 -1.45 11.55 -2.75 L11.6 -6.85 Q13.0 -7.05 13.0 -3.75" fill="#693e15" fill-rule="evenodd" stroke="none"/>
      <path d="M9.1 -1.35 L8.6 0.0 Q5.85 -2.25 6.0 -5.15 6.0 -5.85 6.85 -5.0 L7.05 -4.25 Q7.3 -3.2 8.45 -2.15 L9.1 -1.35" fill="#693e15" fill-rule="evenodd" stroke="none"/>
      <path d="M-23.05 -2.6 Q-25.15 -4.65 -26.25 -6.95 -28.15 -11.1 -26.6 -12.15 -25.3 -13.0 -23.95 -12.15 L-22.8 -11.15 -22.75 -13.1 Q-22.4 -15.05 -20.8 -15.1 -18.3 -15.2 -17.55 -12.0 L-17.05 -12.15 Q-16.4 -12.1 -15.7 -11.15 -14.5 -9.55 -15.3 -3.3 -15.1 -2.05 -13.4 -1.75 L-13.35 -3.05 Q-13.25 -7.65 -12.0 -7.9 -9.3 -8.45 -8.55 -2.85 L-8.15 -3.35 Q-7.7 -5.15 -6.6 -6.0 L-4.5 -5.9 Q-3.25 -5.05 -3.05 -3.2 -2.85 -0.6 -5.65 0.65 L-2.05 0.85 -6.15 3.6 -7.95 4.25 -11.8 4.1 -15.7 2.85 -17.1 3.45 -19.5 3.75 Q-21.55 3.75 -22.05 2.95 -22.8 1.8 -21.55 0.65 L-20.15 -0.25 Q-21.7 -1.25 -23.05 -2.6" fill="#000000" fill-rule="evenodd" stroke="none"/>
      <path d="M-18.6 -5.8 Q-19.1 -12.0 -16.65 -11.15 -15.2 -10.65 -15.55 -6.8 -15.95 -2.65 -15.0 -1.7 -12.1 1.15 -4.75 1.15 L-7.0 3.6 -11.9 3.4 Q-14.3 3.1 -16.35 1.65 -18.1 0.4 -18.6 -5.8" fill="#995b1f" fill-rule="evenodd" stroke="none"/>
      <path d="M-16.6 -11.2 Q-15.35 -11.2 -15.55 -8.0 L-15.95 -4.2 Q-15.95 -3.7 -14.65 -1.2 -14.3 -0.55 -14.4 1.1 L-16.0 0.35 Q-17.55 -0.2 -18.05 -0.65 L-17.0 -11.1 -16.6 -11.1 -16.6 -11.2" fill="#693e15" fill-rule="evenodd" stroke="none"/>
      <path d="M-18.8 -0.35 Q-20.8 -2.4 -21.2 -4.2 -23.2 -13.0 -21.15 -14.15 -19.9 -14.8 -18.6 -12.15 -17.4 -9.85 -17.2 -7.5 -16.7 -2.45 -13.85 -0.4 L-14.95 1.8 Q-16.65 1.85 -18.8 -0.35" fill="#995b1f" fill-rule="evenodd" stroke="none"/>
      <path d="M-20.1 -4.4 L-18.75 -0.6 Q-21.05 -1.05 -24.15 -4.75 -25.5 -6.55 -26.15 -8.65 -26.9 -11.1 -25.6 -11.7 -24.3 -12.25 -22.4 -9.4 -20.85 -7.0 -20.1 -4.4" fill="#995b1f" fill-rule="evenodd" stroke="none"/>
      <path d="M-15.0 0.05 L-13.9 1.35 Q-15.4 2.6 -19.0 2.9 -22.65 3.2 -21.45 1.7 -20.1 0.05 -15.0 0.05" fill="#995b1f" fill-rule="evenodd" stroke="none"/>
      <path d="M-8.95 -1.45 Q-7.45 -3.1 -6.95 -4.35 -6.0 -6.7 -4.45 -4.95 -2.9 -3.15 -4.5 -1.25 -5.65 0.2 -8.75 1.8 L-9.65 0.95 Q-9.95 -0.35 -8.95 -1.45" fill="#995b1f" fill-rule="evenodd" stroke="none"/>
      <path d="M-12.65 -2.65 Q-13.2 -6.55 -11.85 -7.25 -10.8 -7.8 -9.7 -4.45 L-8.3 0.5 -10.3 0.95 Q-12.05 1.25 -12.65 -2.65" fill="#995b1f" fill-rule="evenodd" stroke="none"/>
      <path d="M-5.6 1.25 L-2.05 0.85 -4.25 2.4 -6.3 3.95 -8.6 3.6 -5.6 1.25" fill="#995b1f" fill-rule="evenodd" stroke="none"/>
      <path d="M-7.8 3.75 L-9.25 3.6 -11.85 3.5 -13.75 3.0 Q-14.8 2.4 -15.35 2.3 L-17.45 2.55 Q-16.85 1.1 -17.55 1.15 L-17.45 0.95 Q-18.05 0.25 -16.65 0.5 L-15.2 0.95 -11.85 1.7 -8.5 2.35 -6.95 2.75 -4.8 2.9 Q-6.1 4.0 -6.55 4.05 L-7.8 3.75" fill="#693e15" fill-rule="evenodd" stroke="none"/>
      <path d="M-5.5 -5.15 L-4.25 -3.9 Q-3.8 -3.0 -4.05 -2.2 L-4.8 -1.1 -6.05 0.0 -7.4 0.85 -8.95 0.9 Q-9.05 0.4 -7.95 -0.35 L-6.5 -1.45 Q-5.7 -2.75 -5.65 -3.4 L-5.5 -5.15" fill="#693e15" fill-rule="evenodd" stroke="none"/>
      <path d="M-11.0 -0.6 L-10.55 -2.4 Q-10.6 -6.55 -10.8 -6.6 -10.1 -6.5 -9.65 -4.6 -8.9 -3.45 -8.9 -2.2 -8.95 -1.5 -10.05 -0.7 -10.75 -0.15 -10.95 -0.45 L-11.0 -0.6" fill="#693e15" fill-rule="evenodd" stroke="none"/>
      <path d="M-22.1 -5.55 Q-20.85 -3.9 -17.65 -1.3 -14.05 1.65 -11.4 1.75 L-10.45 2.3 -13.85 2.05 Q-17.0 1.35 -18.5 0.0 -21.2 -1.55 -22.25 -2.6 -24.7 -4.95 -25.95 -7.75 -26.35 -8.65 -26.25 -10.35 -24.95 -9.95 -23.85 -8.3 L-22.1 -5.55" fill="#693e15" fill-rule="evenodd" stroke="none"/>
      <path d="M-19.25 -13.25 L-18.5 -12.05 Q-18.05 -10.5 -18.05 -8.6 -18.05 -7.25 -16.7 -3.9 -16.1 -2.4 -15.4 -1.8 L-16.55 -2.25 -19.55 -4.1 Q-20.2 -6.05 -20.2 -7.2 L-20.2 -10.65 -20.15 -13.9 Q-19.95 -14.3 -19.25 -13.25" fill="#693e15" fill-rule="evenodd" stroke="none"/>
      <path d="M-13.55 -0.65 Q-17.15 -2.4 -18.8 -3.65 -19.85 -4.45 -21.05 -6.6 L-22.05 -8.65 -18.4 -4.2 -13.55 -0.65" fill="#432709" fill-rule="evenodd" stroke="none"/>
      <path d="M-14.95 2.8 Q-16.5 1.75 -17.4 1.25 L-18.45 0.05 -13.15 3.1 -11.85 3.5 -14.95 2.8" fill="#432709" fill-rule="evenodd" stroke="none"/>
      <path d="M15.7 2.5 L14.05 3.0 17.05 0.9 20.45 -1.1 18.75 0.6 15.7 2.5" fill="#432709" fill-rule="evenodd" stroke="none"/>
    </g>
  </defs>
</svg>
